Newaita-dark/apps/16/com.github.bartzaalberg.alias.svg

<svg height="16pt" viewBox="0 0 16 16" width="16pt" xmlns="http://www.w3.org/2000/svg" xmlns:xlink="http://www.w3.org/1999/xlink"><linearGradient id="a"><stop offset="0" stop-opacity=".313725"/><stop offset=".222222" stop-opacity=".27451"/><stop offset="1" stop-opacity="0"/></linearGradient><radialGradient id="b" cx="450.90894" cy="189.57936" gradientTransform="matrix(.00000009 -.0390662 -.0703192 -.00000005 22.261576 31.797666)" gradientUnits="userSpaceOnUse" r="21.166656" xlink:href="#a"/><radialGradient id="c" cx="450.90894" cy="189.57936" gradientTransform="matrix(-.00000009 .0390662 .0703192 .00000005 -6.38506 -3.763741)" gradientUnits="userSpaceOnUse" r="21.166656" xlink:href="#a"/><radialGradient id="d" cx="450.90894" cy="189.57936" gradientTransform="matrix(-.00000009 -.0390662 .0703192 -.00000005 -6.38506 31.797666)" gradientUnits="userSpaceOnUse" r="21.166656" xlink:href="#a"/><radialGradient id="e" cx="450.90894" cy="189.57936" gradientTransform="matrix(.00000009 .0390662 -.0703192 .00000005 22.261575 -3.763741)" gradientUnits="userSpaceOnUse" r="21.166656" xlink:href="#a"/><linearGradient id="f" gradientTransform="matrix(.00668003 0 0 .031253 6.232693 6.719392)" gradientUnits="userSpaceOnUse" x1="255.32306" x2="255.32304" y1="233.5" y2="254.66666"><stop offset="0" stop-opacity=".27451"/><stop offset="1" stop-opacity="0"/></linearGradient><linearGradient id="g" gradientUnits="userSpaceOnUse" x1="254" x2="254" y1="-168.66667" y2="233.5"><stop offset="0" stop-color="#64b5f6"/><stop offset="1" stop-color="#42a5f5"/></linearGradient><linearGradient id="h" gradientUnits="userSpaceOnUse" x1="7.7759962" x2="7.7759962" y1="14.01696629816" y2="1.44805531933"><stop offset="0" stop-color="#bdbdbd"/><stop offset="1" stop-color="#e0e0e0"/></linearGradient><path d="m9.097656 14.015625h1.320313v-.660156h-1.320313zm0 0" fill="url(#b)"/><path d="m6.78125 14.015625h-1.324219v.664063h1.324219zm0 0" fill="url(#c)"/><path d="m6.78125 14.015625h-1.324219v-.660156h1.324219zm0 0" fill="url(#d)"/><path d="m9.097656 14.015625h1.320313v.664063h-1.320313zm0 0" fill="url(#e)"/><path d="m6.78125 13.851562h2.316406v.828126h-2.316406zm0 0" fill="url(#f)"/><path d="m253.975747-168.629428c111.114389 0 201.105795 89.991406 201.105795 201.105795 0 110.989401-89.991406 200.980807-201.105795 200.980807-110.989402 0-201.105796-89.991406-201.105796-200.980807 0-111.114389 90.116394-201.105795 201.105796-201.105795zm0 0" fill="url(#g)" stroke="#333" stroke-linecap="round" stroke-width="3" transform="matrix(.031253 0 0 .031253 0 6.719392)"/><path d="m7.9375 14.015625c-3.480469 0-6.285156-2.800781-6.285156-6.28125 0-.023437 0-.042969 0-.0625.035156 3.453125 2.824218 6.222656 6.285156 6.222656s6.253906-2.769531 6.285156-6.222656v.0625c0 3.480469-2.804687 6.28125-6.285156 6.28125zm0 0" fill-opacity=".196078"/><path d="m7.9375 1.449219c-3.480469 0-6.285156 2.800781-6.285156 6.285156v.058594c.035156-3.453125 2.824218-6.222657 6.285156-6.222657s6.253906 2.769532 6.285156 6.222657c0-.019531 0-.039063 0-.058594 0-3.484375-2.804687-6.285156-6.285156-6.285156zm0 0" fill="#fff" fill-opacity=".392157"/><path d="m7.9375 1.402344c-3.507812 0-6.332031 2.824218-6.332031 6.332031 0 3.503906 2.824219 6.328125 6.332031 6.328125s6.332031-2.824219 6.332031-6.328125c0-3.507813-2.824219-6.332031-6.332031-6.332031zm0 .09375c3.457031 0 6.238281 2.78125 6.238281 6.238281 0 3.453125-2.78125 6.234375-6.238281 6.234375s-6.238281-2.78125-6.238281-6.234375c0-3.457031 2.78125-6.238281 6.238281-6.238281zm0 0" fill="#212121"/><path d="m9.574219 3.925781c-.945313 0-1.992188.015625-2.847657.683594-.914062.710937-1.433593 2.054687-1.433593 4.4375v1.664063c-.003907.179687.089843.347656.246093.4375.15625.089843.347657.089843.503907 0 .15625-.089844.25-.257813.246093-.4375v-1.664063c0-.292969.011719-.5625.023438-.816406h2.949219v2.480469c-.003907.179687.089843.347656.246093.4375.15625.089843.347657.089843.503907 0 .15625-.089844.25-.257813.25-.4375v-2.90625c.003906-.046876.003906-.097657 0-.144532v-3.234375c0-.277343-.226563-.5-.5-.5-.0625 0-.125 0-.1875 0zm-.3125 1.007813v2.300781h-2.832031c.179687-1 .523437-1.535156.910156-1.835937.472656-.371094 1.144531-.449219 1.921875-.464844zm0 0" fill="url(#h)"/><path d="m9.574219 3.925781c-.945313 0-1.992188.015625-2.847657.683594-.914062.710937-1.433593 2.054687-1.433593 4.4375v.253906c0-2.382812.519531-3.730469 1.433593-4.441406.855469-.664063 1.902344-.683594 2.847657-.683594h.1875c.273437 0 .5.226563.5.5v-.25c0-.277343-.226563-.5-.5-.5-.0625 0-.125 0-.1875 0zm-3.09375 3.308594c-.019531.078125-.035157.164063-.050781.25h2.832031v-.25zm3.78125.425781v.144532c.003906-.046876.003906-.097657 0-.144532zm0 0" fill="#fff"/><path d="m9.261719 4.929688c-.777344.015624-1.449219.097656-1.921875.464843-.386719.300781-.730469.835938-.910156 1.835938h.070312c.191406-.792969.496094-1.242188.839844-1.503907.472656-.371093 1.144531-.449218 1.921875-.46875zm1 3.058593v.144531c.003906-.050781.003906-.097656 0-.144531zm-3.949219.242188c-.011719.25-.023438.519531-.023438.816406v.328125c0-.292969.011719-.5625.023438-.816406h2.949219v-.328125zm-1.019531 2.476562v.328125c-.003907.183594.089843.351563.246093.441406.15625.089844.347657.089844.503907 0 .15625-.089843.25-.257812.246093-.441406v-.328125c.003907.179688-.089843.347657-.246093.4375-.15625.089844-.347657.089844-.503907 0-.15625-.089843-.25-.257812-.246093-.4375zm3.96875 0v.328125c-.003907.183594.089843.351563.246093.441406.15625.089844.347657.089844.503907 0 .15625-.089843.25-.257812.25-.441406v-.328125c0 .179688-.09375.347657-.25.4375-.15625.089844-.347657.089844-.503907 0-.15625-.089843-.25-.257812-.246093-.4375zm0 0" fill-opacity=".235294"/><path d="m306.345745-89.386995c-30.247111 0-63.743912.499952-91.116298 21.872911-29.247207 22.747827-45.87062 65.743722-45.87062 141.986441v53.244915c-.124988 5.749451 2.874726 11.123938 7.874248 13.998663 4.999523 2.874726 11.123938 2.874726 16.12346 0 4.999523-2.874725 7.999236-8.249212 7.874248-13.998663v-53.244915c0-9.374105.374965-17.998281.749929-26.122506h94.365988v79.367421c-.124988 5.749451 2.874726 11.123938 7.874248 13.998663 4.999523 2.874726 11.123938 2.874726 16.123461 0 4.999522-2.874725 7.999236-8.249212 7.999236-13.998663v-92.99112c.124988-1.499856.124988-3.124701 0-4.624558v-103.490117c0-8.874153-7.249308-15.998472-15.998472-15.998472-1.99981 0-3.999619 0-5.999428 0zm-9.999045 32.24692v73.61797h-90.616346c5.749451-31.996944 16.7484-49.120309 29.122219-58.74439 15.123555-11.873866 36.621503-14.373628 61.494127-14.87358zm0 0" fill="none" stroke="#212121" stroke-linecap="round" stroke-linejoin="round" stroke-width="3" transform="matrix(.031253 0 0 .031253 0 6.719392)"/></svg>

<?xml version="1.0" encoding="UTF-8"?>
<svg xmlns="http://www.w3.org/2000/svg" xmlns:xlink="http://www.w3.org/1999/xlink" width="16pt" height="16pt" viewBox="0 0 16 16" version="1.1">
<defs>
<radialGradient id="radial0" gradientUnits="userSpaceOnUse" cx="450.90894" cy="189.57936" fx="450.90894" fy="189.57936" r="21.166656" gradientTransform="matrix(0.0000000870852,-0.0390662,-0.0703192,-0.0000000507693,22.261576,31.797666)">
<stop offset="0" style="stop-color:rgb(0%,0%,0%);stop-opacity:0.313725;"/>
<stop offset="0.222222" style="stop-color:rgb(0%,0%,0%);stop-opacity:0.27451;"/>
<stop offset="1" style="stop-color:rgb(0%,0%,0%);stop-opacity:0;"/>
</radialGradient>
<radialGradient id="radial1" gradientUnits="userSpaceOnUse" cx="450.90894" cy="189.57936" fx="450.90894" fy="189.57936" r="21.166656" gradientTransform="matrix(-0.0000000870852,0.0390662,0.0703192,0.0000000507693,-6.38506,-3.763741)">
<stop offset="0" style="stop-color:rgb(0%,0%,0%);stop-opacity:0.313725;"/>
<stop offset="0.222222" style="stop-color:rgb(0%,0%,0%);stop-opacity:0.27451;"/>
<stop offset="1" style="stop-color:rgb(0%,0%,0%);stop-opacity:0;"/>
</radialGradient>
<radialGradient id="radial2" gradientUnits="userSpaceOnUse" cx="450.90894" cy="189.57936" fx="450.90894" fy="189.57936" r="21.166656" gradientTransform="matrix(-0.0000000870852,-0.0390662,0.0703192,-0.0000000507693,-6.38506,31.797666)">
<stop offset="0" style="stop-color:rgb(0%,0%,0%);stop-opacity:0.313725;"/>
<stop offset="0.222222" style="stop-color:rgb(0%,0%,0%);stop-opacity:0.27451;"/>
<stop offset="1" style="stop-color:rgb(0%,0%,0%);stop-opacity:0;"/>
</radialGradient>
<radialGradient id="radial3" gradientUnits="userSpaceOnUse" cx="450.90894" cy="189.57936" fx="450.90894" fy="189.57936" r="21.166656" gradientTransform="matrix(0.0000000870852,0.0390662,-0.0703192,0.0000000507693,22.261575,-3.763741)">
<stop offset="0" style="stop-color:rgb(0%,0%,0%);stop-opacity:0.313725;"/>
<stop offset="0.222222" style="stop-color:rgb(0%,0%,0%);stop-opacity:0.27451;"/>
<stop offset="1" style="stop-color:rgb(0%,0%,0%);stop-opacity:0;"/>
</radialGradient>
<linearGradient id="linear0" gradientUnits="userSpaceOnUse" x1="255.32306" y1="233.5" x2="255.32304" y2="254.66666" gradientTransform="matrix(0.00668003,0,0,0.031253,6.232693,6.719392)">
<stop offset="0" style="stop-color:rgb(0%,0%,0%);stop-opacity:0.27451;"/>
<stop offset="1" style="stop-color:rgb(0%,0%,0%);stop-opacity:0;"/>
</linearGradient>
<linearGradient id="linear1" gradientUnits="userSpaceOnUse" x1="254" y1="-168.66667" x2="254" y2="233.5" >
<stop offset="0" style="stop-color:rgb(39.215686%,70.980392%,96.470588%);stop-opacity:1;"/>
<stop offset="1" style="stop-color:rgb(25.882353%,64.705882%,96.078431%);stop-opacity:1;"/>
</linearGradient>
<linearGradient id="linear2" gradientUnits="userSpaceOnUse" x1="960" y1="1695.1182" x2="960" y2="175.11813" gradientTransform="matrix(0.00826902,0,0,0.00826902,-0.162263,0)">
<stop offset="0" style="stop-color:rgb(74.117647%,74.117647%,74.117647%);stop-opacity:1;"/>
<stop offset="1" style="stop-color:rgb(87.843137%,87.843137%,87.843137%);stop-opacity:1;"/>
</linearGradient>
</defs>
<g id="surface1">
<path style=" stroke:none;fill-rule:nonzero;fill:url(#radial0);" d="M 9.097656 14.015625 L 10.417969 14.015625 L 10.417969 13.355469 L 9.097656 13.355469 Z M 9.097656 14.015625 "/>
<path style=" stroke:none;fill-rule:nonzero;fill:url(#radial1);" d="M 6.78125 14.015625 L 5.457031 14.015625 L 5.457031 14.679688 L 6.78125 14.679688 Z M 6.78125 14.015625 "/>
<path style=" stroke:none;fill-rule:nonzero;fill:url(#radial2);" d="M 6.78125 14.015625 L 5.457031 14.015625 L 5.457031 13.355469 L 6.78125 13.355469 Z M 6.78125 14.015625 "/>
<path style=" stroke:none;fill-rule:nonzero;fill:url(#radial3);" d="M 9.097656 14.015625 L 10.417969 14.015625 L 10.417969 14.679688 L 9.097656 14.679688 Z M 9.097656 14.015625 "/>
<path style=" stroke:none;fill-rule:nonzero;fill:url(#linear0);" d="M 6.78125 13.851562 L 9.097656 13.851562 L 9.097656 14.679688 L 6.78125 14.679688 Z M 6.78125 13.851562 "/>
<path style="fill-rule:nonzero;fill:url(#linear1);stroke-width:3;stroke-linecap:round;stroke-linejoin:miter;stroke:rgb(20%,20%,20%);stroke-opacity:1;stroke-miterlimit:4;" d="M 253.975747 -168.629428 C 365.090136 -168.629428 455.081542 -78.638022 455.081542 32.476367 C 455.081542 143.465768 365.090136 233.457174 253.975747 233.457174 C 142.986345 233.457174 52.869951 143.465768 52.869951 32.476367 C 52.869951 -78.638022 142.986345 -168.629428 253.975747 -168.629428 Z M 253.975747 -168.629428 " transform="matrix(0.031253,0,0,0.031253,0,6.719392)"/>
<path style=" stroke:none;fill-rule:nonzero;fill:rgb(0%,0%,0%);fill-opacity:0.196078;" d="M 7.9375 14.015625 C 4.457031 14.015625 1.652344 11.214844 1.652344 7.734375 C 1.652344 7.710938 1.652344 7.691406 1.652344 7.671875 C 1.6875 11.125 4.476562 13.894531 7.9375 13.894531 C 11.398438 13.894531 14.191406 11.125 14.222656 7.671875 C 14.222656 7.691406 14.222656 7.710938 14.222656 7.734375 C 14.222656 11.214844 11.417969 14.015625 7.9375 14.015625 Z M 7.9375 14.015625 "/>
<path style=" stroke:none;fill-rule:nonzero;fill:rgb(100%,100%,100%);fill-opacity:0.392157;" d="M 7.9375 1.449219 C 4.457031 1.449219 1.652344 4.25 1.652344 7.734375 C 1.652344 7.753906 1.652344 7.773438 1.652344 7.792969 C 1.6875 4.339844 4.476562 1.570312 7.9375 1.570312 C 11.398438 1.570312 14.191406 4.339844 14.222656 7.792969 C 14.222656 7.773438 14.222656 7.753906 14.222656 7.734375 C 14.222656 4.25 11.417969 1.449219 7.9375 1.449219 Z M 7.9375 1.449219 "/>
<path style=" stroke:none;fill-rule:nonzero;fill:rgb(12.941176%,12.941176%,12.941176%);fill-opacity:1;" d="M 7.9375 1.402344 C 4.429688 1.402344 1.605469 4.226562 1.605469 7.734375 C 1.605469 11.238281 4.429688 14.0625 7.9375 14.0625 C 11.445312 14.0625 14.269531 11.238281 14.269531 7.734375 C 14.269531 4.226562 11.445312 1.402344 7.9375 1.402344 Z M 7.9375 1.496094 C 11.394531 1.496094 14.175781 4.277344 14.175781 7.734375 C 14.175781 11.1875 11.394531 13.96875 7.9375 13.96875 C 4.480469 13.96875 1.699219 11.1875 1.699219 7.734375 C 1.699219 4.277344 4.480469 1.496094 7.9375 1.496094 Z M 7.9375 1.496094 "/>
<path style=" stroke:none;fill-rule:nonzero;fill:url(#linear2);" d="M 9.574219 3.925781 C 8.628906 3.925781 7.582031 3.941406 6.726562 4.609375 C 5.8125 5.320312 5.292969 6.664062 5.292969 9.046875 L 5.292969 10.710938 C 5.289062 10.890625 5.382812 11.058594 5.539062 11.148438 C 5.695312 11.238281 5.886719 11.238281 6.042969 11.148438 C 6.199219 11.058594 6.292969 10.890625 6.289062 10.710938 L 6.289062 9.046875 C 6.289062 8.753906 6.300781 8.484375 6.3125 8.230469 L 9.261719 8.230469 L 9.261719 10.710938 C 9.257812 10.890625 9.351562 11.058594 9.507812 11.148438 C 9.664062 11.238281 9.855469 11.238281 10.011719 11.148438 C 10.167969 11.058594 10.261719 10.890625 10.261719 10.710938 L 10.261719 7.804688 C 10.265625 7.757812 10.265625 7.707031 10.261719 7.660156 L 10.261719 4.425781 C 10.261719 4.148438 10.035156 3.925781 9.761719 3.925781 C 9.699219 3.925781 9.636719 3.925781 9.574219 3.925781 Z M 9.261719 4.933594 L 9.261719 7.234375 L 6.429688 7.234375 C 6.609375 6.234375 6.953125 5.699219 7.339844 5.398438 C 7.8125 5.027344 8.484375 4.949219 9.261719 4.933594 Z M 9.261719 4.933594 "/>
<path style=" stroke:none;fill-rule:nonzero;fill:rgb(100%,100%,100%);fill-opacity:1;" d="M 9.574219 3.925781 C 8.628906 3.925781 7.582031 3.941406 6.726562 4.609375 C 5.8125 5.320312 5.292969 6.664062 5.292969 9.046875 L 5.292969 9.300781 C 5.292969 6.917969 5.8125 5.570312 6.726562 4.859375 C 7.582031 4.195312 8.628906 4.175781 9.574219 4.175781 C 9.636719 4.175781 9.699219 4.175781 9.761719 4.175781 C 10.035156 4.175781 10.261719 4.402344 10.261719 4.675781 L 10.261719 4.425781 C 10.261719 4.148438 10.035156 3.925781 9.761719 3.925781 C 9.699219 3.925781 9.636719 3.925781 9.574219 3.925781 Z M 6.480469 7.234375 C 6.460938 7.3125 6.445312 7.398438 6.429688 7.484375 L 9.261719 7.484375 L 9.261719 7.234375 Z M 10.261719 7.660156 L 10.261719 7.804688 C 10.265625 7.757812 10.265625 7.707031 10.261719 7.660156 Z M 10.261719 7.660156 "/>
<path style=" stroke:none;fill-rule:nonzero;fill:rgb(0%,0%,0%);fill-opacity:0.235294;" d="M 9.261719 4.929688 C 8.484375 4.945312 7.8125 5.027344 7.339844 5.394531 C 6.953125 5.695312 6.609375 6.230469 6.429688 7.230469 L 6.5 7.230469 C 6.691406 6.4375 6.996094 5.988281 7.339844 5.726562 C 7.8125 5.355469 8.484375 5.277344 9.261719 5.257812 Z M 10.261719 7.988281 L 10.261719 8.132812 C 10.265625 8.082031 10.265625 8.035156 10.261719 7.988281 Z M 6.3125 8.230469 C 6.300781 8.480469 6.289062 8.75 6.289062 9.046875 L 6.289062 9.375 C 6.289062 9.082031 6.300781 8.8125 6.3125 8.558594 L 9.261719 8.558594 L 9.261719 8.230469 Z M 5.292969 10.707031 L 5.292969 11.035156 C 5.289062 11.21875 5.382812 11.386719 5.539062 11.476562 C 5.695312 11.566406 5.886719 11.566406 6.042969 11.476562 C 6.199219 11.386719 6.292969 11.21875 6.289062 11.035156 L 6.289062 10.707031 C 6.292969 10.886719 6.199219 11.054688 6.042969 11.144531 C 5.886719 11.234375 5.695312 11.234375 5.539062 11.144531 C 5.382812 11.054688 5.289062 10.886719 5.292969 10.707031 Z M 9.261719 10.707031 L 9.261719 11.035156 C 9.257812 11.21875 9.351562 11.386719 9.507812 11.476562 C 9.664062 11.566406 9.855469 11.566406 10.011719 11.476562 C 10.167969 11.386719 10.261719 11.21875 10.261719 11.035156 L 10.261719 10.707031 C 10.261719 10.886719 10.167969 11.054688 10.011719 11.144531 C 9.855469 11.234375 9.664062 11.234375 9.507812 11.144531 C 9.351562 11.054688 9.257812 10.886719 9.261719 10.707031 Z M 9.261719 10.707031 "/>
<path style="fill:none;stroke-width:3;stroke-linecap:round;stroke-linejoin:round;stroke:rgb(12.941176%,12.941176%,12.941176%);stroke-opacity:1;stroke-miterlimit:4;" d="M 306.345745 -89.386995 C 276.098634 -89.386995 242.601833 -88.887043 215.229447 -67.514084 C 185.98224 -44.766257 169.358827 -1.770362 169.358827 74.472357 L 169.358827 127.717272 C 169.233839 133.466723 172.233553 138.84121 177.233075 141.715935 C 182.232598 144.590661 188.357013 144.590661 193.356535 141.715935 C 198.356058 138.84121 201.355771 133.466723 201.230783 127.717272 L 201.230783 74.472357 C 201.230783 65.098252 201.605748 56.474076 201.980712 48.349851 L 296.3467 48.349851 L 296.3467 127.717272 C 296.221712 133.466723 299.221426 138.84121 304.220948 141.715935 C 309.220471 144.590661 315.344886 144.590661 320.344409 141.715935 C 325.343931 138.84121 328.343645 133.466723 328.343645 127.717272 L 328.343645 34.726152 C 328.468633 33.226296 328.468633 31.601451 328.343645 30.101594 L 328.343645 -73.388523 C 328.343645 -82.262676 321.094337 -89.386995 312.345173 -89.386995 C 310.345363 -89.386995 308.345554 -89.386995 306.345745 -89.386995 Z M 296.3467 -57.140075 L 296.3467 16.477895 L 205.730354 16.477895 C 211.479805 -15.519049 222.478754 -32.642414 234.852573 -42.266495 C 249.976128 -54.140361 271.474076 -56.640123 296.3467 -57.140075 Z M 296.3467 -57.140075 " transform="matrix(0.031253,0,0,0.031253,0,6.719392)"/>
</g>
</svg>
